X: 1231
M: 3/8
L: 1/16
K: G
|: B2 |\
c>B^A>Bc>B | e2 z2 e2 | f2f2fg | e2 z2 A2 |\
{c}B>A^G>AB>A | d2 z2 df | e2e2e2 | d4 D>G |
K: C
e4d2 | c3Gce | (gfdG).A.B | ceg2 G/GG/ |\
e4d2 | c3cde | f3edB | c4 "^D.C.":|

